X:1
T:WHEN THE "EVENING STAR" WENT DOWN
M:6/8
L:1/8
K:Ab
 E| EEE FEA| c3- A2 E| EEE FEB| B3- B2 c| d/2 d3/2 d B2 B| c2 c A2 F|\
 EGB d2 G| A3- A2 B| Bc=d eeB| e3- e2 B| BBc d/2 d3/2 c| B3- B2 c|\
 d/2 d3/2 d B2 B| c2 c A2 F/2F/2|E-G B d2 G| A3- A2 E| AAA BcB| A2- E- A2 B|\
 cce cBA| B3- B2 c| d/2 d3/2 d B2 B| c2 c A2 F| EGB d2 G|A-B-c-d-e f|\
 BBc d2 G| A3- A2||
